;Generated for MRiscoC Professional Firmware
;https://github.com/mriscoc/Ender3V2S1

;FLAVOR:Marlin
;TIME:6415
;Filament used: 9.41981m
;Layer height: 0.28
;Cura Time Estimate:  6415sec = 1hr 46min 55sec 
M117 ET 1hr 47min
;MINX:86.14
;MINY:86.125
;MINZ:0.28
;MAXX:148.86
;MAXY:148.875
;MAXZ:68.04
;TARGET_MACHINE.NAME:Creality Ender-3
;  [Display Filename and Layer on LCD]  Did not run.  It is now included in 'Display Info on LCD'.
;POSTPROCESSED
;  [professionalfirmware]
;  [CreateThumbnail]
;  [DisplayInfoOnLCD]
;  [DisplayFilenameAndLayerOnLCD]
;Generated with Cura_SteamEngine 5.7.0-beta.1
;
;

;
;

M140 S50
M105
M190 S50
M104 S200
M105
M109 S200
M82 ;absolute extrusion mode
; Ender 3 Custom Start G-code
G92 E0 ; Reset Extruder
G28 ; Home all axes
G1 Z2.0 F3000 ; Move Z Axis up little to prevent scratching of Heat Bed
G1 X0.1 Y20 Z0.3 F5000.0 ; Move to start position
G1 X0.1 Y200.0 Z0.3 F1500.0 E15 ; Draw the first line
G1 X0.4 Y200.0 Z0.3 F5000.0 ; Move to side a little
G1 X0.4 Y20 Z0.3 F1500.0 E30 ; Draw the second line
G92 E0 ; Reset Extruder
G1 Z2.0 F3000 ; Move Z Axis up little to prevent scratching of Heat Bed
G1 X5 Y20 Z0.3 F5000.0 ; Move over to prevent blob squish
G92 E0
G92 E0
G1 F2700 E-5
;LAYER_COUNT:243
;LAYER:0
M117 1/243 | ET 1h46m
M107
G0 F6000 X95.508 Y95.122 Z0.28
;TYPE:SKIRT
G1 F2700 E0
G1 F1200 X96.272 Y94.395 E0.07366
G1 X97.153 Y93.636 E0.15488
G1 X98.499 Y92.533 E0.27643
G1 X99.343 Y91.911 E0.34966
G1 X100.304 Y91.274 E0.43019
G1 X101.776 Y90.349 E0.55162
G1 X102.669 Y89.85 E0.62307
G1 X103.941 Y89.224 E0.72209
G1 X105.29 Y88.599 E0.82593
G1 X106.259 Y88.206 E0.89897
G1 X107.303 Y87.842 E0.97619
G1 X109.006 Y87.297 E1.10108
G1 X110.02 Y87.029 E1.17434
G1 X111.155 Y86.788 E1.25538
G1 X112.866 Y86.469 E1.37695
G1 X113.876 Y86.333 E1.44813
G1 X115.029 Y86.236 E1.52895
G1 X116.791 Y86.133 E1.65223
G1 X117.808 Y86.125 E1.72326
G1 X119.263 Y86.189 E1.82499
G1 X120.741 Y86.293 E1.92847
G1 X121.77 Y86.416 E2.00086
G1 X122.886 Y86.605 E2.07992
G1 X124.591 Y86.937 E2.20124
G1 X125.649 Y87.2 E2.27739
G1 X126.963 Y87.601 E2.37334
G1 X128.37 Y88.067 E2.47687
G1 X129.389 Y88.463 E2.55323
G1 X130.627 Y89.019 E2.64802
G1 X131.979 Y89.665 E2.75267
G1 X132.918 Y90.173 E2.82724
G1 X133.942 Y90.795 E2.91093
G1 X135.358 Y91.703 E3.02842
G1 X136.208 Y92.312 E3.10145
G1 X137.14 Y93.051 E3.18453
G1 X138.457 Y94.15 E3.30434
G1 X139.23 Y94.866 E3.37793
G1 X140.192 Y95.854 E3.47425
G1 X141.205 Y96.945 E3.57823
G1 X141.891 Y97.763 E3.6528
G1 X142.751 Y98.903 E3.75254
G1 X143.599 Y100.085 E3.85415
G1 X144.173 Y100.975 E3.92812
G1 X144.753 Y101.982 E4.00928
G1 X145.575 Y103.492 E4.12937
G1 X146.024 Y104.426 E4.20175
G1 X146.487 Y105.529 E4.2853
G1 X147.097 Y107.086 E4.4021
G1 X147.441 Y108.118 E4.47808
G1 X147.828 Y109.519 E4.5796
G1 X148.183 Y110.939 E4.68183
G1 X148.382 Y111.943 E4.75332
G1 X148.582 Y113.325 E4.85086
G1 X148.761 Y114.812 E4.95547
G1 X148.833 Y115.832 E5.02689
G1 X148.86 Y117.302 E5.12958
G1 X148.851 Y118.756 E5.23114
G1 X148.792 Y119.815 E5.30522
G1 X148.67 Y120.961 E5.38572
G1 X148.435 Y122.76 E5.51244
G1 X148.247 Y123.794 E5.58584
G1 X147.907 Y125.251 E5.69034
G1 X147.767 Y125.797 E5.72971
G1 X147.509 Y126.707 E5.79578
G1 X147.254 Y127.491 E5.85336
G1 X147.077 Y127.972 E5.88916
G1 X146.378 Y129.746 E6.02234
G1 X146.143 Y130.313 E6.06521
G1 X145.756 Y131.142 E6.12911
G1 X145.09 Y132.408 E6.22902
G1 X144.368 Y133.703 E6.33258
G1 X143.808 Y134.599 E6.40638
G1 X142.985 Y135.775 E6.50664
G1 X142.146 Y136.917 E6.60562
G1 X141.457 Y137.762 E6.68177
G1 X140.506 Y138.812 E6.78072
G1 X139.492 Y139.878 E6.88348
G1 X138.728 Y140.605 E6.95714
G1 X137.847 Y141.364 E7.03836
G1 X136.501 Y142.467 E7.15991
G1 X135.657 Y143.089 E7.23314
G1 X134.696 Y143.726 E7.31367
G1 X133.224 Y144.651 E7.43509
G1 X132.331 Y145.15 E7.50654
G1 X131.059 Y145.776 E7.60557
G1 X129.71 Y146.401 E7.70941
G1 X128.741 Y146.794 E7.78245
G1 X127.697 Y147.158 E7.85967
G1 X125.994 Y147.703 E7.98456
G1 X124.98 Y147.971 E8.05782
G1 X123.845 Y148.212 E8.13886
G1 X122.134 Y148.531 E8.26043
G1 X121.124 Y148.667 E8.33161
G1 X119.971 Y148.764 E8.41242
G1 X118.209 Y148.867 E8.5357
G1 X117.192 Y148.875 E8.60674
G1 X115.737 Y148.811 E8.70846
G1 X114.259 Y148.707 E8.81195
G1 X113.261 Y148.588 E8.88215
G1 X111.832 Y148.344 E8.98341
G1 X110.405 Y148.063 E9.08499
G1 X109.351 Y147.8 E9.16087
G1 X108.037 Y147.399 E9.25682
G1 X106.63 Y146.933 E9.36035
G1 X105.609 Y146.536 E9.43686
G1 X104.369 Y145.979 E9.53181
G1 X103.019 Y145.334 E9.63631
G1 X102.077 Y144.824 E9.71113
G1 X100.832 Y144.064 E9.81301
G1 X99.666 Y143.314 E9.90984
G1 X98.789 Y142.686 E9.98518
G1 X97.845 Y141.937 E10.06935
G1 X96.539 Y140.847 E10.18817
G1 X95.768 Y140.132 E10.26161
G1 X94.808 Y139.146 E10.35773
G1 X93.793 Y138.053 E10.46191
G1 X93.105 Y137.233 E10.53668
G1 X92.248 Y136.095 E10.63618
G1 X91.399 Y134.911 E10.73794
G1 X90.827 Y134.023 E10.81172
G1 X90.119 Y132.788 E10.91115
G1 X89.423 Y131.505 E11.0131
G1 X88.962 Y130.541 E11.08773
G1 X88.437 Y129.283 E11.18294
G1 X88.046 Y128.288 E11.25761
G1 X87.727 Y127.432 E11.32142
G1 X87.495 Y126.731 E11.37299
G1 X87.301 Y126.047 E11.42265
G1 X87.019 Y124.939 E11.50251
G1 X86.75 Y123.781 E11.58554
G1 X86.583 Y122.887 E11.64907
G1 X86.496 Y122.282 E11.69176
G1 X86.244 Y120.229 E11.83623
G1 X86.166 Y119.136 E11.91277
G1 X86.14 Y117.699 E12.01315
G1 X86.149 Y116.244 E12.11478
G1 X86.208 Y115.185 E12.18886
G1 X86.33 Y114.04 E12.26929
G1 X86.553 Y112.331 E12.38967
G1 X86.746 Y111.281 E12.46423
G1 X87.075 Y109.902 E12.56326
G1 X87.443 Y108.502 E12.66436
G1 X87.761 Y107.5 E12.73779
G1 X88.285 Y106.1 E12.8422
G1 X88.819 Y104.777 E12.94185
G1 X89.243 Y103.86 E13.01241
G1 X89.91 Y102.592 E13.11248
G1 X90.632 Y101.297 E13.21604
G1 X91.192 Y100.401 E13.28984
G1 X92.015 Y99.225 E13.3901
G1 X92.854 Y98.083 E13.48907
G1 X93.543 Y97.238 E13.56523
G1 X94.494 Y96.188 E13.66418
G1 X95.508 Y95.122 E13.76694
G0 F6000 X95.922 Y95.556
G1 F1200 X96.664 Y94.849 E13.83852
G1 X97.533 Y94.1 E13.91865
G1 X98.855 Y93.016 E14.03806
G1 X99.675 Y92.411 E14.10924
G1 X100.623 Y91.782 E14.1887
G1 X102.069 Y90.873 E14.308
G1 X102.962 Y90.374 E14.37945
G1 X104.193 Y89.768 E14.47528
G1 X105.515 Y89.155 E14.57706
G1 X106.457 Y88.773 E14.64806
G1 X107.501 Y88.409 E14.72529
G1 X109.16 Y87.877 E14.84697
G1 X110.145 Y87.616 E14.91815
G1 X111.265 Y87.378 E14.99812
G1 X112.946 Y87.064 E15.11756
G1 X113.956 Y86.928 E15.18874
G1 X115.064 Y86.835 E15.26641
G1 X116.796 Y86.733 E15.38759
G1 X117.813 Y86.725 E15.45862
G1 X119.221 Y86.788 E15.55707
G1 X120.67 Y86.889 E15.65852
G1 X121.67 Y87.008 E15.72886
G1 X122.771 Y87.194 E15.80685
G1 X124.476 Y87.526 E15.92817
G1 X125.474 Y87.774 E16
G1 X126.774 Y88.171 E16.09494
G1 X128.181 Y88.637 E16.19846
G1 X129.143 Y89.01 E16.27053
G1 X130.369 Y89.561 E16.36441
G1 X131.694 Y90.193 E16.46695
G1 X132.607 Y90.686 E16.53942
G1 X133.618 Y91.3 E16.62204
G1 X135.009 Y92.191 E16.73742
G1 X135.835 Y92.782 E16.80836
G1 X136.756 Y93.512 E16.89044
G1 X138.049 Y94.59 E17.00802
G1 X138.8 Y95.285 E17.07949
G1 X139.753 Y96.263 E17.17487
G1 X140.746 Y97.331 E17.27673
G1 X141.412 Y98.124 E17.34906
G1 X142.264 Y99.253 E17.44785
G1 X143.095 Y100.41 E17.54734
G1 X143.653 Y101.275 E17.61924
G1 X144.226 Y102.269 E17.69938
G1 X145.034 Y103.752 E17.81734
G1 X145.483 Y104.686 E17.88972
G1 X145.928 Y105.748 E17.97015
G1 X146.538 Y107.305 E18.08694
G1 X146.863 Y108.278 E18.1586
G1 X147.246 Y109.665 E18.2591
G1 X147.594 Y111.056 E18.35925
G1 X147.793 Y112.06 E18.43074
G1 X147.986 Y113.397 E18.52509
G1 X148.162 Y114.854 E18.6276
G1 X148.234 Y115.874 E18.69902
G1 X148.26 Y117.299 E18.79856
G1 X148.252 Y118.723 E18.89803
G1 X148.195 Y119.752 E18.97001
G1 X148.075 Y120.883 E19.04945
G1 X147.84 Y122.682 E19.17617
G1 X147.663 Y123.658 E19.24545
G1 X147.326 Y125.102 E19.34902
G1 X147.19 Y125.633 E19.38731
G1 X146.938 Y126.521 E19.45178
G1 X146.683 Y127.305 E19.50936
G1 X146.519 Y127.752 E19.54262
G1 X145.824 Y129.516 E19.67504
G1 X145.599 Y130.059 E19.7161
G1 X145.212 Y130.888 E19.78
G1 X144.566 Y132.116 E19.87691
G1 X143.859 Y133.385 E19.97838
G1 X143.316 Y134.255 E20.05001
G1 X142.501 Y135.42 E20.14931
G1 X141.662 Y136.562 E20.24829
G1 X141.012 Y137.359 E20.32012
G1 X140.071 Y138.399 E20.41809
G1 X139.078 Y139.444 E20.51877
G1 X138.336 Y140.151 E20.59036
G1 X137.467 Y140.9 E20.67049
G1 X136.145 Y141.984 E20.7899
G1 X135.325 Y142.589 E20.86107
G1 X134.377 Y143.218 E20.94054
G1 X132.931 Y144.127 E21.05983
G1 X132.038 Y144.626 E21.13128
G1 X130.807 Y145.232 E21.22712
G1 X129.485 Y145.845 E21.3289
G1 X128.543 Y146.227 E21.3999
G1 X127.499 Y146.591 E21.47712
G1 X125.84 Y147.123 E21.59881
G1 X124.855 Y147.384 E21.66998
G1 X123.735 Y147.622 E21.74996
G1 X122.054 Y147.936 E21.8694
G1 X121.044 Y148.072 E21.94058
G1 X119.936 Y148.165 E22.01824
G1 X118.204 Y148.267 E22.13943
G1 X117.187 Y148.275 E22.21046
G1 X115.779 Y148.212 E22.3089
G1 X114.33 Y148.111 E22.41036
G1 X113.332 Y147.992 E22.48056
G1 X111.948 Y147.755 E22.57863
G1 X110.521 Y147.474 E22.68022
G1 X109.526 Y147.226 E22.75184
G1 X108.226 Y146.829 E22.84678
G1 X106.819 Y146.363 E22.9503
G1 X105.855 Y145.989 E23.02252
G1 X104.627 Y145.437 E23.11656
G1 X103.304 Y144.806 E23.21894
G1 X102.39 Y144.312 E23.29151
G1 X101.157 Y143.559 E23.39242
G1 X99.991 Y142.809 E23.48925
G1 X99.162 Y142.216 E23.56044
G1 X98.229 Y141.476 E23.64362
G1 X96.947 Y140.407 E23.76021
G1 X96.198 Y139.713 E23.83153
G1 X95.247 Y138.737 E23.92671
G1 X94.252 Y137.667 E24.02876
G1 X93.584 Y136.872 E24.10129
G1 X92.735 Y135.745 E24.19984
G1 X91.903 Y134.586 E24.29949
G1 X91.347 Y133.724 E24.37114
G1 X90.646 Y132.502 E24.46954
G1 X89.964 Y131.246 E24.56936
G1 X89.516 Y130.31 E24.64184
G1 X88.995 Y129.063 E24.73624
G1 X88.608 Y128.079 E24.81009
G1 X88.297 Y127.243 E24.87239
G1 X88.065 Y126.542 E24.92397
G1 X87.882 Y125.899 E24.97066
G1 X87.603 Y124.803 E25.04965
G1 X87.34 Y123.67 E25.13089
G1 X87.177 Y122.802 E25.19258
G1 X87.092 Y122.209 E25.23442
G1 X86.84 Y120.156 E25.37889
G1 X86.766 Y119.125 E25.45109
G1 X86.74 Y117.702 E25.5505
G1 X86.748 Y116.277 E25.65003
G1 X86.805 Y115.248 E25.72201
G1 X86.925 Y114.117 E25.80145
G1 X87.143 Y112.439 E25.91964
G1 X87.33 Y111.42 E25.992
G1 X87.655 Y110.054 E26.09007
G1 X88.015 Y108.683 E26.18908
G1 X88.323 Y107.71 E26.26036
G1 X88.841 Y106.325 E26.36364
G1 X89.364 Y105.029 E26.46126
G1 X89.788 Y104.112 E26.53182
G1 X90.434 Y102.884 E26.62874
G1 X91.141 Y101.615 E26.7302
G1 X91.684 Y100.745 E26.80183
G1 X92.499 Y99.58 E26.90114
G1 X93.338 Y98.438 E27.00011
G1 X93.988 Y97.641 E27.07195
G1 X94.929 Y96.601 E27.16991
G1 X95.922 Y95.556 E27.27059
G1 F2700 E22.27059
;MESH:??????????.stl
G0 F6000 X102.939 Y102.148
G0 X104.291 Y103.171
;TYPE:WALL-INNER
G1 F2700 E27.27059
G1 F903.4 X104.143 Y103.283 E27.28781
G1 F956.2 X103.715 Y103.685 E27.33929
G1 F985 X103.298 Y104.152 E27.39256
G0 F6000 X101.17 Y107.14
G0 X100 Y109.267
G0 X99.11 Y111.52
G0 X98.503 Y113.875
G0 X98.201 Y116.285
G0 X98.201 Y118.715
G0 X98.504 Y121.127
G0 X99.096 Y123.446
G0 X100.001 Y125.728
G0 X101.053 Y127.644
G0 X103.188 Y130.708
G1 F970.4 X103.559 Y131.147 E27.44221
G1 F956.2 X104.065 Y131.654 E27.505
G1 F884.5 X104.478 Y131.961 E27.55376
G0 F6000 X105.449 Y132.653
G0 X108.185 Y134.445
G0 X110.377 Y135.474
G0 X112.687 Y136.225
G0 X114.835 Y136.636
G0 X117.5 Y136.893
G0 X117.5 Y137.094
G1 F1200 X119.955 Y136.941 E27.72557
G1 X122.375 Y136.478 E27.89766
G1 X124.716 Y135.717 E28.06959
G1 X126.937 Y134.673 E28.24101
G1 X129.018 Y133.354 E28.41309
G1 X130.157 Y132.412 E28.51633
G1 F1097.6 X130.572 Y131.929 E28.56496
G1 X129.957 Y132.089 E28.61349
G1 F1200 X129.814 Y132.14 E28.62409
G1 X129.286 Y132.277 E28.66219
G1 X128.681 Y132.324 E28.70458
G1 X128.066 Y132.277 E28.74766
G1 X127.465 Y132.121 E28.79103
G1 X126.912 Y131.873 E28.83336
G1 X126.379 Y131.518 E28.87809
G1 X125.913 Y131.065 E28.92348
G1 X125.563 Y130.595 E28.96441
G1 X125.28 Y130.034 E29.0083
G1 X125.112 Y129.466 E29.04967
G1 X125.025 Y128.823 E29.09499
G1 X125.055 Y128.207 E29.13807
G1 X125.183 Y127.604 E29.18112
G1 X125.416 Y127.03 E29.22439
G1 X125.721 Y126.526 E29.26554
G1 X126.142 Y126.041 E29.31039
G1 X126.613 Y125.662 E29.35262
G1 X127.154 Y125.354 E29.3961
G1 X127.781 Y125.134 E29.44251
G1 X128.342 Y125.041 E29.48223
G1 X128.971 Y125.038 E29.52616
G1 X129.591 Y125.136 E29.57001
G1 X130.191 Y125.347 E29.61443
G1 X130.727 Y125.65 E29.65744
G1 X131.208 Y126.042 E29.70078
G1 X131.61 Y126.497 E29.74318
G1 X131.935 Y127.021 E29.78625
G1 X132.168 Y127.603 E29.83004
G1 X132.301 Y128.207 E29.87324
G1 X132.327 Y128.833 E29.917
G1 X132.242 Y129.452 E29.96064
G1 X132.092 Y129.957 E29.99743
G1 F1118 X131.827 Y130.693 E30.05608
G1 X132.311 Y130.3 E30.10282
G1 F1200 X132.6 Y129.993 E30.13227
G1 X134.046 Y127.997 E30.30442
G1 X135.232 Y125.839 E30.47641
G1 X136.141 Y123.55 E30.64843
G1 X136.315 Y122.983 E30.68986
G1 X136.749 Y121.177 E30.81959
G1 X137.06 Y118.731 E30.99181
G1 X137.06 Y116.269 E31.16377
G1 X136.75 Y113.826 E31.33578
G1 X136.134 Y111.439 E31.50796
G1 X135.232 Y109.156 E31.67942
G1 X134.046 Y106.999 E31.85135
G1 X132.601 Y105.007 E32.02323
G1 F1132.1 X132.153 Y104.531 E32.07163
G1 F1015.5 X131.698 Y104.15 E32.12061
G1 F1051.1 X131.908 Y104.603 E32.16042
G1 F1176.5 X132.163 Y105.245 E32.20964
G1 F1200 X132.301 Y105.858 E32.25352
G1 X132.327 Y106.481 E32.29708
G1 X132.243 Y107.094 E32.34029
G1 X132.068 Y107.684 E32.38328
G1 X131.785 Y108.242 E32.42698
G1 X131.442 Y108.705 E32.46722
G1 X130.973 Y109.163 E32.51301
G1 X130.452 Y109.517 E32.557
G1 X129.868 Y109.772 E32.60151
G1 X129.266 Y109.924 E32.64488
G1 X128.651 Y109.972 E32.68797
G1 X128.047 Y109.92 E32.73031
G1 X127.443 Y109.758 E32.77399
G1 X126.908 Y109.519 E32.81492
G1 X126.366 Y109.151 E32.86067
G1 X125.933 Y108.737 E32.90252
G1 X125.56 Y108.239 E32.94597
G1 X125.284 Y107.683 E32.98933
G1 X125.108 Y107.096 E33.03213
G1 X125.028 Y106.479 E33.07559
G1 X125.051 Y105.855 E33.1192
G1 X125.184 Y105.251 E33.1624
G1 X125.414 Y104.676 E33.20566
G1 X125.735 Y104.149 E33.24876
G1 X126.143 Y103.686 E33.29186
G1 X126.626 Y103.298 E33.33513
G1 X127.169 Y102.991 E33.3787
G1 X127.761 Y102.783 E33.42253
G1 X128.371 Y102.684 E33.46569
G1 X128.984 Y102.684 E33.50851
G1 F1178.4 X129.581 Y102.783 E33.55155
G1 F1137.4 X130.266 Y103.013 E33.6048
G1 F995.9 X130.708 Y103.172 E33.64433
G1 F958.7 X130.32 Y102.719 E33.69647
G1 F1107.7 X129.018 Y101.642 E33.82433
G1 F1200 X126.937 Y100.323 E33.99642
G1 X124.716 Y99.279 E34.16783
G1 X122.375 Y98.518 E34.33976
G1 X119.955 Y98.055 E34.51186
G1 X117.5 Y97.902 E34.68366
G1 X115.041 Y98.055 E34.85575
G1 X112.621 Y98.518 E35.02784
G1 X110.28 Y99.279 E35.19977
G1 X108.059 Y100.323 E35.37118
G1 X105.982 Y101.642 E35.54304
G1 F1106 X104.684 Y102.715 E35.67066
G1 F954.9 X104.291 Y103.171 E35.7235
G1 F991.7 X104.734 Y103.012 E35.76328
G1 F1155.7 X105.408 Y102.785 E35.81486
G1 F1200 X106.017 Y102.684 E35.85797
G1 X106.632 Y102.684 E35.90093
G1 X107.241 Y102.785 E35.94405
G1 X107.834 Y102.993 E35.98794
G1 X108.374 Y103.298 E36.03126
G1 X108.856 Y103.69 E36.07465
G1 X109.257 Y104.145 E36.11701
G1 X109.586 Y104.674 E36.16052
G1 X109.816 Y105.252 E36.20397
G1 X109.949 Y105.857 E36.24724
G1 X109.972 Y106.479 E36.29071
G1 X109.888 Y107.096 E36.33421
G1 X109.712 Y107.683 E36.37701
G1 X109.428 Y108.245 E36.42099
G1 X109.063 Y108.737 E36.46378
G1 X108.634 Y109.148 E36.50527
G1 X108.091 Y109.521 E36.55129
G1 X107.51 Y109.774 E36.59555
G1 X106.96 Y109.916 E36.63522
G1 X106.299 Y109.972 E36.68156
G1 X105.734 Y109.924 E36.72116
G1 X105.131 Y109.772 E36.7646
G1 X104.541 Y109.515 E36.80955
G1 X104.023 Y109.163 E36.85329
G1 X103.554 Y108.705 E36.89908
G1 X103.211 Y108.242 E36.93932
G1 X102.928 Y107.684 E36.98302
G1 X102.752 Y107.09 E37.02629
G1 X102.673 Y106.47 E37.06995
G1 X102.699 Y105.855 E37.11294
G1 X102.832 Y105.25 E37.15621
G1 F1178.4 X103.09 Y104.609 E37.20536
G1 F1054.2 X103.298 Y104.152 E37.24528
G1 F1063.5 X102.855 Y104.522 E37.29077
G1 F1190.1 X102.399 Y105.007 E37.33765
G1 F1200 X100.949 Y107 E37.5098
G1 X99.764 Y109.156 E37.68163
G1 X98.862 Y111.439 E37.85309
G1 X98.246 Y113.825 E38.0252
G1 X97.94 Y116.269 E38.19724
