;Generated for MRiscoC Professional Firmware
;https://github.com/mriscoc/Ender3V2S1

;FLAVOR:Marlin
;TIME:4488
;Filament used: 6.53413m
;Layer height: 0.28
;Cura Time Estimate:  4488sec = 1hr 14min 48sec 
M117 ET 1hr 15min
;MINX:89.952
;MINY:68.38
;MINZ:0.28
;MAXX:146.525
;MAXY:164.536
;MAXZ:24.36
;TARGET_MACHINE.NAME:Creality Ender-3
;  [Display Filename and Layer on LCD]  Did not run.  It is now included in 'Display Info on LCD'.
;POSTPROCESSED
;  [professionalfirmware]
;  [CreateThumbnail]
;  [DisplayInfoOnLCD]
;  [DisplayFilenameAndLayerOnLCD]
;Generated with Cura_SteamEngine 5.7.1
;
;

;
;

M140 S50
M105
M190 S50
M104 S200
M105
M109 S200
M82 ;absolute extrusion mode
; Ender 3 Custom Start G-code
G92 E0 ; Reset Extruder
G28 ; Home all axes
G1 Z2.0 F3000 ; Move Z Axis up little to prevent scratching of Heat Bed
G1 X0.1 Y20 Z0.3 F5000.0 ; Move to start position
G1 X0.1 Y200.0 Z0.3 F1500.0 E15 ; Draw the first line
G1 X0.4 Y200.0 Z0.3 F5000.0 ; Move to side a little
G1 X0.4 Y20 Z0.3 F1500.0 E30 ; Draw the second line
G92 E0 ; Reset Extruder
G1 Z2.0 F3000 ; Move Z Axis up little to prevent scratching of Heat Bed
G1 X5 Y20 Z0.3 F5000.0 ; Move over to prevent blob squish
G92 E0
G92 E0
G1 F2700 E-5
;LAYER_COUNT:87
;LAYER:0
M117 1/87 | ET 1h14m
M107
G0 F6000 X90.803 Y72.674 Z0.28
;TYPE:SKIRT
G1 F2700 E0
G1 F1200 X92.191 Y71.215 E0.14065
G1 X92.353 Y71.095 E0.15473
G1 X93.042 Y70.742 E0.20881
G1 X94.686 Y70.279 E0.3281
G1 X95.362 Y70.233 E0.37543
G1 X95.715 Y70.26 E0.40015
G1 X97.422 Y70.74 E0.52401
G1 X98.116 Y71.095 E0.57845
G1 X98.278 Y71.216 E0.59258
G1 X99.559 Y72.564 E0.72246
G1 X99.897 Y72.481 E0.74677
G1 X100.515 Y72.439 E0.79004
G1 X100.868 Y72.466 E0.81476
G1 X101.569 Y72.663 E0.86562
G1 X102.101 Y72.104 E0.91952
G1 X102.263 Y71.984 E0.9336
G1 X102.952 Y71.631 E0.98768
G1 X104.596 Y71.168 E1.10697
G1 X105.272 Y71.122 E1.15429
G1 X105.624 Y71.148 E1.17895
G1 X107.345 Y71.633 E1.30384
G1 X108.03 Y71.988 E1.35772
G1 X108.211 Y72.13 E1.37379
G1 X108.325 Y71.738 E1.40231
G1 X108.666 Y71.05 E1.45594
G1 X110.054 Y69.591 E1.59659
G1 X110.216 Y69.471 E1.61067
G1 X110.905 Y69.118 E1.66475
G1 X112.549 Y68.655 E1.78404
G1 X113.225 Y68.609 E1.83137
G1 X113.578 Y68.636 E1.85609
G1 X115.285 Y69.116 E1.97995
G1 X115.98 Y69.471 E2.03445
G1 X116.142 Y69.592 E2.04858
G1 X117.089 Y70.59 E2.14467
G1 X117.788 Y69.855 E2.21552
G1 X117.95 Y69.734 E2.22964
G1 X118.639 Y69.381 E2.28371
G1 X120.283 Y68.918 E2.40301
G1 X120.959 Y68.872 E2.45033
G1 X121.312 Y68.899 E2.47506
G1 X123.019 Y69.379 E2.59891
G1 X123.713 Y69.734 E2.65336
G1 X123.875 Y69.855 E2.66748
G1 X124.631 Y70.65 E2.74411
G1 X125.856 Y69.362 E2.86826
G1 X126.018 Y69.242 E2.88234
G1 X126.707 Y68.889 E2.93641
G1 X128.351 Y68.426 E3.05571
G1 X129.027 Y68.38 E3.10303
G1 X129.38 Y68.407 E3.12776
G1 X131.087 Y68.887 E3.25161
G1 X131.782 Y69.242 E3.30612
G1 X131.944 Y69.363 E3.32025
G1 X133.139 Y70.622 E3.44149
G1 X134.275 Y69.428 E3.5566
G1 X134.437 Y69.308 E3.57068
G1 X135.126 Y68.955 E3.62475
G1 X136.77 Y68.492 E3.74405
G1 X137.446 Y68.446 E3.79137
G1 X137.799 Y68.473 E3.8161
G1 X139.506 Y68.953 E3.93995
G1 X140.201 Y69.308 E3.99446
G1 X140.363 Y69.429 E4.00858
G1 X141.612 Y70.745 E4.13531
G1 X142.043 Y71.405 E4.19037
G1 X142.145 Y71.76 E4.21616
G1 X143.426 Y72.116 E4.30903
G1 X144.119 Y72.47 E4.36338
G1 X144.281 Y72.591 E4.3775
G1 X145.534 Y73.909 E4.50452
G1 X145.956 Y74.555 E4.55842
G1 X146.467 Y76.314 E4.68636
G1 X146.525 Y77.065 E4.73897
G1 X146.48 Y77.418 E4.76382
G1 X146.017 Y79.077 E4.88413
G1 X145.644 Y79.818 E4.94207
G1 X144.315 Y81.147 E5.07335
G1 X143.618 Y81.617 E5.13206
G1 X141.784 Y82.13 E5.26508
G1 X141.092 Y82.174 E5.31351
G1 X140.732 Y82.144 E5.33874
G1 X139.079 Y81.66 E5.45904
G1 X138.356 Y81.291 E5.51574
G1 X137.673 Y80.608 E5.5832
G1 X137.137 Y81.144 E5.63615
G1 X136.441 Y81.614 E5.69481
G1 X134.902 Y82.041 E5.80636
G1 X133.955 Y82.989 E5.89995
G1 X133.258 Y83.459 E5.95867
G1 X131.424 Y83.972 E6.09169
G1 X130.732 Y84.016 E6.14012
G1 X130.372 Y83.986 E6.16535
G1 X128.719 Y83.502 E6.28565
G1 X127.996 Y83.133 E6.34235
G1 X127.093 Y82.23 E6.43154
G1 X126.878 Y82.338 E6.44835
G1 X125.134 Y82.826 E6.57484
G1 X124.442 Y82.87 E6.62327
G1 X124.081 Y82.84 E6.64857
G1 X123.513 Y82.673 E6.68992
G1 X123.836 Y83.783 E6.77067
G1 X123.894 Y84.537 E6.82349
G1 X123.849 Y84.89 E6.84834
G1 X123.538 Y86.005 E6.9292
G1 X123.397 Y86.284 E6.95103
G1 X123.503 Y86.648 E6.97751
G1 X123.561 Y87.402 E7.03033
G1 X123.516 Y87.755 E7.05519
G1 X123.389 Y88.209 E7.08811
G1 X123.596 Y88.516 E7.11397
G1 X123.93 Y89.665 E7.19755
G1 X123.988 Y90.419 E7.25037
G1 X123.943 Y90.772 E7.27522
G1 X123.662 Y91.78 E7.34831
G1 X123.289 Y92.521 E7.40626
G1 X122.671 Y93.139 E7.4673
G1 X123.072 Y93.564 E7.50811
G1 X123.489 Y94.199 E7.56118
G1 X123.789 Y95.232 E7.63631
G1 X123.842 Y95.928 E7.68506
G1 X123.818 Y96.283 E7.70991
G1 X123.686 Y96.758 E7.74435
G1 X123.887 Y97.432 E7.79347
G1 X123.927 Y97.711 E7.81316
G1 X124.274 Y98.237 E7.85717
G1 X124.633 Y99.472 E7.947
G1 X124.691 Y100.226 E7.99982
G1 X124.646 Y100.58 E8.02475
G1 X124.411 Y101.419 E8.0856
G1 X124.674 Y102.321 E8.15123
G1 X124.701 Y102.511 E8.16463
G1 X133.028 Y102.511 E8.74624
G1 X133.781 Y102.66 E8.79986
G1 X134.567 Y103.107 E8.86301
G1 X135.021 Y103.617 E8.9107
G1 X135.39 Y104.246 E8.96164
G1 X135.549 Y105.031 E9.01758
G1 X135.549 Y162.015 E12.9977
G1 X135.4 Y162.768 E13.05132
G1 X134.953 Y163.554 E13.11447
G1 X134.443 Y164.008 E13.16216
G1 X133.814 Y164.377 E13.2131
G1 X133.029 Y164.536 E13.26904
G1 X102.322 Y164.536 E15.41381
G1 X101.569 Y164.387 E15.46743
G1 X100.783 Y163.94 E15.53058
G1 X100.329 Y163.43 E15.57827
G1 X99.96 Y162.801 E15.62921
G1 X99.801 Y162.016 E15.68515
G1 X99.801 Y105.031 E19.66534
G1 X99.95 Y104.278 E19.71896
G1 X100.397 Y103.492 E19.78211
G1 X100.907 Y103.038 E19.8298
G1 X101.536 Y102.669 E19.88074
G1 X102.321 Y102.51 E19.93668
G1 X109.911 Y102.51 E20.46681
G1 X109.902 Y102.273 E20.48338
G1 X109.945 Y101.956 E20.50572
G1 X110.291 Y100.77 E20.59201
G1 X110.44 Y100.48 E20.61479
G1 X110.37 Y100.19 E20.63562
G1 X110.318 Y99.475 E20.6857
G1 X110.369 Y99.115 E20.71109
G1 X110.554 Y98.488 E20.75675
G1 X110.284 Y97.57 E20.82359
G1 X110.232 Y96.849 E20.87408
G1 X110.258 Y96.488 E20.89936
G1 X110.574 Y95.405 E20.97815
G1 X110.419 Y94.874 E21.01679
G1 X110.367 Y94.158 E21.06693
G1 X110.393 Y93.797 E21.09221
G1 X110.755 Y92.557 E21.18244
G1 X111.061 Y91.946 E21.23017
G1 X111.175 Y91.789 E21.24372
G1 X111.075 Y91.448 E21.26854
G1 X111.039 Y91.227 E21.28418
G1 X110.975 Y91.125 E21.29259
G1 X110.764 Y90.71 E21.32511
G1 X110.396 Y89.455 E21.41645
G1 X110.344 Y88.737 E21.46673
G1 X110.37 Y88.376 E21.49201
G1 X110.761 Y87.034 E21.58964
G1 X111.106 Y86.345 E21.64346
G1 X111.494 Y85.939 E21.68269
G1 X111.384 Y85.564 E21.70999
G1 X111.348 Y85.357 E21.72466
G1 X111.199 Y85.075 E21.74694
G1 X110.789 Y83.678 E21.84863
G1 X110.737 Y82.96 E21.89891
G1 X110.763 Y82.599 E21.92419
G1 X110.854 Y82.288 E21.94682
G1 X109.919 Y82.55 E22.01464
G1 X109.227 Y82.594 E22.06308
G1 X108.867 Y82.564 E22.08831
G1 X107.214 Y82.08 E22.20861
G1 X106.575 Y81.754 E22.25872
G1 X106.38 Y81.6 E22.27607
G1 X105.704 Y81.796 E22.32523
G1 X105.113 Y81.836 E22.3666
G1 X104.594 Y81.799 E22.40295
G1 X103.864 Y81.578 E22.45622
G1 X103.464 Y81.978 E22.49573
G1 X102.767 Y82.448 E22.55445
G1 X100.933 Y82.961 E22.68746
G1 X100.241 Y83.005 E22.73589
G1 X99.881 Y82.975 E22.76113
G1 X98.228 Y82.491 E22.88143
G1 X97.505 Y82.122 E22.93812
G1 X96.059 Y80.676 E23.08096
G1 X95.717 Y80.759 E23.10554
G1 X95.088 Y80.799 E23.14956
G1 X94.728 Y80.769 E23.17479
G1 X93.075 Y80.285 E23.2951
G1 X92.352 Y79.916 E23.35179
G1 X90.98 Y78.544 E23.48731
G1 X90.524 Y77.877 E23.54375
G1 X90.004 Y76.098 E23.6732
G1 X89.952 Y75.384 E23.72321
G1 X89.978 Y75.023 E23.74849
G1 X90.462 Y73.362 E23.86933
G1 X90.803 Y72.674 E23.92296
G0 F6000 X91.3 Y73.023
G1 F1200 X92.626 Y71.629 E24.05734
G1 X93.263 Y71.303 E24.10732
G1 X94.785 Y70.874 E24.21777
G1 X95.403 Y70.832 E24.26103
G1 X95.607 Y70.853 E24.27535
G1 X97.206 Y71.303 E24.39138
G1 X97.843 Y71.629 E24.44136
G1 X99.063 Y72.913 E24.56507
G1 X99.29 Y73.263 E24.59421
G1 X99.938 Y73.08 E24.64124
G1 X100.556 Y73.038 E24.6845
G1 X100.76 Y73.059 E24.69882
G1 X101.755 Y73.339 E24.77102
G1 X102.536 Y72.518 E24.85017
G1 X103.173 Y72.192 E24.90015
G1 X104.695 Y71.763 E25.01059
G1 X105.313 Y71.721 E25.05386
G1 X105.516 Y71.742 E25.06811
G1 X107.125 Y72.195 E25.18487
G1 X107.754 Y72.521 E25.23435
G1 X108.113 Y72.898 E25.27071
G1 X108.657 Y72.745 E25.31018
G1 X108.886 Y71.958 E25.36743
G1 X109.163 Y71.399 E25.411
G1 X110.489 Y70.005 E25.54538
G1 X111.126 Y69.679 E25.59536
G1 X112.648 Y69.25 E25.70581
G1 X113.266 Y69.208 E25.74908
G1 X113.47 Y69.229 E25.7634
G1 X115.069 Y69.679 E25.87942
G1 X115.707 Y70.005 E25.92947
G1 X116.884 Y71.245 E26.04888
G1 X117.058 Y71.493 E26.07004
G1 X118.223 Y70.268 E26.18811
G1 X118.86 Y69.942 E26.2381
G1 X120.382 Y69.513 E26.34854
G1 X121 Y69.471 E26.39181
G1 X121.204 Y69.492 E26.40613
G1 X122.803 Y69.942 E26.52215
G1 X123.44 Y70.268 E26.57213
G1 X124.736 Y71.632 E26.70355
G1 X124.965 Y71.17 E26.73957
G1 X126.291 Y69.776 E26.87395
G1 X126.928 Y69.45 E26.92393
G1 X128.45 Y69.021 E27.03438
G1 X129.068 Y68.979 E27.07764
G1 X129.272 Y69 E27.09196
G1 X130.871 Y69.45 E27.20799
G1 X131.509 Y69.776 E27.25803
G1 X132.723 Y71.055 E27.3812
G1 X133.017 Y71.505 E27.41874
G1 X133.122 Y71.77 E27.43865
G1 X133.383 Y71.237 E27.4801
G1 X134.71 Y69.842 E27.61458
G1 X135.347 Y69.516 E27.66456
G1 X136.869 Y69.087 E27.77501
G1 X137.487 Y69.045 E27.81827
G1 X137.691 Y69.066 E27.8326
G1 X139.29 Y69.516 E27.94862
G1 X139.928 Y69.842 E27.99866
G1 X141.14 Y71.119 E28.12163
G1 X141.49 Y71.655 E28.16635
G1 X141.661 Y72.248 E28.20945
G1 X143.208 Y72.678 E28.3216
G1 X143.846 Y73.004 E28.37164
G1 X145.062 Y74.283 E28.49491
G1 X145.405 Y74.808 E28.53871
G1 X145.874 Y76.422 E28.6561
G1 X145.922 Y77.051 E28.70016
G1 X145.902 Y77.257 E28.71462
G1 X145.455 Y78.859 E28.83079
G1 X145.151 Y79.463 E28.87802
G1 X143.931 Y80.683 E28.99853
G1 X143.366 Y81.064 E29.04612
G1 X141.683 Y81.535 E29.16819
G1 X141.054 Y81.575 E29.21221
G1 X140.847 Y81.552 E29.22676
G1 X139.299 Y81.099 E29.33942
G1 X138.713 Y80.8 E29.38537
G1 X137.673 Y79.76 E29.4881
G1 X136.753 Y80.68 E29.57897
G1 X136.188 Y81.061 E29.62657
G1 X134.59 Y81.505 E29.74241
G1 X133.571 Y82.525 E29.84311
G1 X133.006 Y82.906 E29.89071
G1 X131.323 Y83.377 E30.01278
G1 X130.694 Y83.417 E30.0568
G1 X130.487 Y83.394 E30.07135
G1 X128.939 Y82.941 E30.18401
G1 X128.353 Y82.642 E30.22996
G1 X127.167 Y81.456 E30.34711
G1 X126.716 Y81.76 E30.38509
G1 X125.033 Y82.231 E30.50716
G1 X124.404 Y82.271 E30.55118
G1 X124.197 Y82.248 E30.56573
G1 X122.68 Y81.801 E30.67619
G1 X122.674 Y82.199 E30.70399
G1 X122.63 Y82.355 E30.71532
G1 X122.926 Y82.802 E30.75276
G1 X123.243 Y83.892 E30.83205
G1 X123.291 Y84.523 E30.87625
G1 X123.271 Y84.729 E30.8907
G1 X122.976 Y85.786 E30.96735
G1 X122.755 Y86.224 E31.00162
G1 X122.91 Y86.757 E31.04039
G1 X122.958 Y87.388 E31.08459
G1 X122.938 Y87.594 E31.09905
G1 X122.737 Y88.315 E31.15133
G1 X123.046 Y88.774 E31.18997
G1 X123.337 Y89.774 E31.26272
G1 X123.385 Y90.405 E31.30692
G1 X123.365 Y90.611 E31.32137
G1 X123.1 Y91.562 E31.39033
G1 X122.796 Y92.166 E31.43756
G1 X122.041 Y92.921 E31.51213
G1 X121.735 Y93.127 E31.5379
G1 X121.996 Y93.299 E31.55973
G1 X122.598 Y93.936 E31.62095
G1 X122.938 Y94.454 E31.66423
G1 X123.196 Y95.341 E31.72875
G1 X123.244 Y95.973 E31.77302
G1 X123.224 Y96.179 E31.78747
G1 X123.051 Y96.801 E31.83257
G1 X123.128 Y96.976 E31.84592
G1 X123.311 Y97.601 E31.89141
G1 X123.348 Y97.947 E31.91571
G1 X123.439 Y98.059 E31.92579
G1 X123.723 Y98.491 E31.9619
G1 X124.04 Y99.581 E32.04119
G1 X124.088 Y100.212 E32.08539
G1 X124.068 Y100.418 E32.09984
G1 X123.779 Y101.451 E32.17477
G1 X123.831 Y101.573 E32.18403
G1 X124.098 Y102.489 E32.25067
G1 X124.145 Y103.111 E32.29424
G1 X132.968 Y103.111 E32.91049
G1 X133.571 Y103.23 E32.95342
G1 X134.184 Y103.579 E33.00269
G1 X134.531 Y103.969 E33.03915
G1 X134.822 Y104.465 E33.07932
G1 X134.949 Y105.091 E33.12393
G1 X134.949 Y161.955 E37.09567
G1 X134.83 Y162.558 E37.1386
G1 X134.481 Y163.171 E37.18787
G1 X134.091 Y163.518 E37.22433
G1 X133.595 Y163.809 E37.2645
G1 X132.969 Y163.936 E37.30911
G1 X102.382 Y163.936 E39.4455
G1 X101.779 Y163.817 E39.48843
G1 X101.166 Y163.468 E39.5377
G1 X100.819 Y163.078 E39.57416
G1 X100.528 Y162.582 E39.61433
G1 X100.401 Y161.956 E39.65894
G1 X100.401 Y105.091 E43.63075
G1 X100.52 Y104.488 E43.67368
G1 X100.869 Y103.875 E43.72295
G1 X101.259 Y103.528 E43.75941
G1 X101.755 Y103.237 E43.79958
G1 X102.381 Y103.11 E43.84419
G1 X110.582 Y103.11 E44.417
G1 X110.541 Y102.918 E44.43071
G1 X110.499 Y102.335 E44.47154
G1 X110.521 Y102.124 E44.48636
G1 X110.851 Y100.992 E44.56871
G1 X111.083 Y100.542 E44.60407
G1 X110.968 Y100.147 E44.63281
G1 X110.921 Y99.498 E44.67826
G1 X110.944 Y99.285 E44.69322
G1 X111.18 Y98.486 E44.75141
G1 X110.877 Y97.458 E44.82627
G1 X110.83 Y96.806 E44.87193
G1 X110.852 Y96.595 E44.88674
G1 X111.15 Y95.573 E44.9611
G1 X111.207 Y95.433 E44.97166
G1 X111.012 Y94.765 E45.02026
G1 X110.965 Y94.115 E45.06578
G1 X110.987 Y93.904 E45.0806
G1 X111.316 Y92.776 E45.16267
G1 X111.597 Y92.215 E45.20649
G1 X111.848 Y91.952 E45.23189
G1 X111.651 Y91.279 E45.28086
G1 X111.615 Y91.007 E45.30003
G1 X111.51 Y90.853 E45.31305
G1 X111.324 Y90.488 E45.34166
G1 X110.989 Y89.344 E45.42492
G1 X110.942 Y88.694 E45.47044
G1 X110.964 Y88.483 E45.48526
G1 X111.322 Y87.255 E45.5746
G1 X111.602 Y86.695 E45.61833
G1 X112.168 Y86.103 E45.67553
G1 X111.96 Y85.395 E45.72708
G1 X111.926 Y85.168 E45.74311
G1 X111.759 Y84.852 E45.76807
G1 X111.382 Y83.567 E45.86161
G1 X111.335 Y82.917 E45.90713
G1 X111.357 Y82.706 E45.92194
G1 X111.766 Y81.306 E46.02382
G1 X111.411 Y81.509 E46.05238
G1 X109.818 Y81.955 E46.16792
G1 X109.189 Y81.995 E46.21194
G1 X108.982 Y81.972 E46.22649
G1 X107.434 Y81.519 E46.33915
G1 X106.848 Y81.22 E46.3851
G1 X106.554 Y80.926 E46.41414
G1 X105.602 Y81.201 E46.48335
G1 X105.072 Y81.237 E46.52045
G1 X104.702 Y81.205 E46.54639
G1 X103.694 Y80.9 E46.61995
G1 X103.08 Y81.514 E46.6806
G1 X102.515 Y81.895 E46.7282
G1 X100.832 Y82.366 E46.85027
G1 X100.203 Y82.406 E46.89429
G1 X99.996 Y82.383 E46.90884
G1 X98.448 Y81.93 E47.02149
G1 X97.862 Y81.631 E47.06744
G1 X96.6 Y80.369 E47.1921
G1 X96.333 Y79.977 E47.22523
G1 X95.679 Y80.16 E47.27266
G1 X95.05 Y80.2 E47.31668
G1 X94.843 Y80.177 E47.33123
G1 X93.295 Y79.724 E47.44389
G1 X92.709 Y79.425 E47.48984
G1 X91.445 Y78.161 E47.61469
G1 X91.073 Y77.617 E47.66072
G1 X90.597 Y75.989 E47.77919
G1 X90.55 Y75.341 E47.82457
G1 X90.572 Y75.13 E47.83939
G1 X91.023 Y73.582 E47.95201
G1 X91.3 Y73.023 E47.99558
G1 F2700 E42.99558
G0 F6000 X119.133 Y93.186
G1 F2700 E47.99558
G1 F1200 X119.173 Y93.29 E48.00336
G1 X119.63 Y93.295 E48.03529
G1 X119.674 Y93.406 E48.04363
G1 X119.63 Y93.295 E48.05197
G1 X119.628 Y93.109 E48.06496
G1 X119.173 Y93.29 E48.09916
G1 X119.173 Y93.492 E48.11327
G1 X119.133 Y93.186 E48.13482
G0 F6000 X118.583 Y93.401
G1 F1200 X118.218 Y93.293 E48.16141
G1 X117.855 Y93.107 E48.1899
G1 X117.699 Y92.991 E48.20348
G1 X117.668 Y93.023 E48.20659
G1 X117.942 Y93.954 E48.27437
G1 X118.237 Y93.644 E48.30426
G1 X118.583 Y93.401 E48.33379
G1 F2700 E43.33379
G0 F6000 X120.219 Y93.178
G1 F2700 E48.33379
G1 F1200 X120.562 Y93.276 E48.35871
G1 X120.813 Y93.389 E48.37794
G1 X121.122 Y93.487 E48.40058
G1 X121.56 Y93.711 E48.43494
G1 X122.124 Y94.308 E48.4923
G1 X122.387 Y94.709 E48.5258
G1 X122.603 Y95.45 E48.57971
G1 X122.646 Y96.018 E48.61949
G1 X122.411 Y96.861 E48.68062
G1 X122.552 Y97.145 E48.70277
G1 X122.735 Y97.77 E48.74825
G1 X122.763 Y98.191 E48.77772
G1 X122.937 Y98.388 E48.79608
G1 X123.172 Y98.746 E48.82599
G1 X123.447 Y99.69 E48.89467
G1 X123.49 Y100.257 E48.93439
G1 X123.226 Y101.202 E49.00292
G1 X123.106 Y101.466 E49.02317
G1 X123.255 Y101.741 E49.04502
G1 X123.505 Y102.598 E49.10737
G1 X123.548 Y103.165 E49.14709
G1 X123.396 Y103.711 E49.18667
G1 X132.908 Y103.711 E49.85105
G1 X133.361 Y103.8 E49.8833
G1 X133.799 Y104.05 E49.91852
