;Generated for MRiscoC Professional Firmware
;https://github.com/mriscoc/Ender3V2S1

;FLAVOR:Marlin
;TIME:2946
;Filament used: 4.48684m
;Layer height: 0.28
;Cura Time Estimate:  2946sec = 0hr 49min 6sec 
M117 ET 0hr 49min
;MINX:77.99
;MINY:77.913
;MINZ:0.28
;MAXX:157.014
;MAXY:157.087
;MAXZ:6.44
;TARGET_MACHINE.NAME:Creality Ender-3
;  [Display Filename and Layer on LCD]  Did not run.  It is now included in 'Display Info on LCD'.
;POSTPROCESSED
;  [professionalfirmware]
;  [CreateThumbnail]
;  [DisplayInfoOnLCD]
;  [DisplayFilenameAndLayerOnLCD]
;Generated with Cura_SteamEngine 5.7.1
;
;

;
;

M140 S50
M105
M190 S50
M104 S200
M105
M109 S200
M82 ;absolute extrusion mode
; Ender 3 Custom Start G-code
G92 E0 ; Reset Extruder
G28 ; Home all axes
G1 Z2.0 F3000 ; Move Z Axis up little to prevent scratching of Heat Bed
G1 X0.1 Y20 Z0.3 F5000.0 ; Move to start position
G1 X0.1 Y200.0 Z0.3 F1500.0 E15 ; Draw the first line
G1 X0.4 Y200.0 Z0.3 F5000.0 ; Move to side a little
G1 X0.4 Y20 Z0.3 F1500.0 E30 ; Draw the second line
G92 E0 ; Reset Extruder
G1 Z2.0 F3000 ; Move Z Axis up little to prevent scratching of Heat Bed
G1 X5 Y20 Z0.3 F5000.0 ; Move over to prevent blob squish
G92 E0
G92 E0
G1 F2700 E-5
;LAYER_COUNT:23
;LAYER:0
M117 1/23 | ET 49m
M107
G0 F6000 X88.539 Y90.497 Z0.28
;TYPE:SKIRT
G1 F2700 E0
G1 F1200 X91.877 Y87.322 E0.32177
G1 X95.732 Y84.431 E0.65833
G1 X99.744 Y82.111 E0.98203
G1 X103.785 Y80.36 E1.28964
G1 X108.765 Y78.885 E1.65241
G1 X112.844 Y78.182 E1.94151
G1 X117.489 Y77.913 E2.26649
G1 X122.472 Y78.221 E2.6152
G1 X126.151 Y78.868 E2.87611
G1 X131.377 Y80.418 E3.25684
G1 X134.774 Y81.873 E3.51496
G1 X139.367 Y84.498 E3.88446
G1 X143.229 Y87.405 E4.22208
G1 X146.146 Y90.163 E4.50248
G1 X149.316 Y93.939 E4.84683
G1 X151.883 Y97.865 E5.17446
G1 X153.707 Y101.476 E5.45703
G1 X155.465 Y106.277 E5.81413
G1 X156.516 Y110.756 E6.13547
G1 X156.99 Y114.636 E6.40849
G1 X157.014 Y119.908 E6.77672
G1 X156.415 Y124.781 E7.11965
G1 X155.557 Y128.406 E7.37984
G1 X153.735 Y133.464 E7.75534
G1 X152.003 Y136.924 E8.0256
G1 X149.123 Y141.325 E8.39296
G1 X146.461 Y144.503 E8.68251
G1 X143.123 Y147.678 E9.00428
G1 X139.148 Y150.649 E9.3509
G1 X135.256 Y152.889 E9.66455
G1 X131.215 Y154.64 E9.97216
G1 X126.235 Y156.115 E10.33493
G1 X122.156 Y156.818 E10.62403
G1 X117.511 Y157.087 E10.94901
G1 X112.528 Y156.779 E11.29772
G1 X108.849 Y156.132 E11.55863
G1 X103.623 Y154.582 E11.93936
G1 X100.224 Y153.126 E12.19763
G1 X95.633 Y150.502 E12.56698
G1 X91.772 Y147.599 E12.90438
G1 X89.05 Y145.045 E13.16509
G1 X85.556 Y140.884 E13.54459
G1 X83.316 Y137.468 E13.82991
G1 X81.032 Y132.908 E14.18612
G1 X79.569 Y128.844 E14.48781
G1 X78.484 Y124.245 E14.81785
G1 X78.01 Y120.365 E15.09087
G1 X77.99 Y115.018 E15.46434
G1 X78.585 Y110.219 E15.8021
G1 X79.443 Y106.594 E16.06229
G1 X81.265 Y101.536 E16.43779
G1 X82.997 Y98.076 E16.70805
G1 X85.877 Y93.675 E17.07541
G1 X88.539 Y90.497 E17.36497
G0 F6000 X88.953 Y90.932
G1 F1200 X92.291 Y87.757 E17.68674
G1 X96.092 Y84.911 E18.01839
G1 X99.983 Y82.662 E18.3323
G1 X104.024 Y80.911 E18.6399
G1 X108.867 Y79.476 E18.99271
G1 X112.879 Y78.781 E19.2771
G1 X117.452 Y78.512 E19.59706
G1 X122.368 Y78.812 E19.94107
G1 X126.047 Y79.459 E20.20197
G1 X131.141 Y80.97 E20.57309
G1 X134.538 Y82.425 E20.83121
G1 X139.007 Y84.978 E21.1907
G1 X142.817 Y87.841 E21.52357
G1 X145.686 Y90.549 E21.79913
G1 X148.856 Y94.325 E22.14348
G1 X151.347 Y98.136 E22.46149
G1 X153.171 Y101.747 E22.74405
G1 X154.881 Y106.414 E23.09122
G1 X155.92 Y110.829 E23.40801
G1 X156.394 Y114.709 E23.68103
G1 X156.414 Y119.91 E24.0443
G1 X155.831 Y124.643 E24.37738
G1 X154.973 Y128.268 E24.63757
G1 X153.198 Y133.195 E25.00336
G1 X151.466 Y136.655 E25.27361
G1 X148.663 Y140.94 E25.63125
G1 X146.047 Y144.068 E25.91606
G1 X142.709 Y147.243 E26.23783
G1 X138.848 Y150.129 E26.57452
G1 X135.017 Y152.338 E26.8834
G1 X130.976 Y154.089 E27.191
G1 X126.133 Y155.524 E27.54381
G1 X122.121 Y156.219 E27.8282
G1 X117.548 Y156.488 E28.14816
G1 X112.632 Y156.188 E28.49217
G1 X108.953 Y155.541 E28.75307
G1 X103.859 Y154.03 E29.12419
G1 X100.46 Y152.574 E29.38247
G1 X95.993 Y150.022 E29.7418
G1 X92.183 Y147.161 E30.07459
G1 X89.461 Y144.607 E30.33529
G1 X86.058 Y140.555 E30.70488
G1 X83.818 Y137.139 E30.9902
G1 X81.597 Y132.705 E31.33657
G1 X80.134 Y128.641 E31.63826
G1 X79.08 Y124.172 E31.95897
G1 X78.606 Y120.292 E32.23199
G1 X78.586 Y115.091 E32.59526
G1 X79.169 Y110.357 E32.92841
G1 X80.027 Y106.732 E33.1886
G1 X81.802 Y101.805 E33.55438
G1 X83.534 Y98.345 E33.82464
G1 X86.337 Y94.06 E34.18228
G1 X88.953 Y90.932 E34.46709
G0 F6000 X89.367 Y91.367
G1 F1200 X92.705 Y88.192 E34.78886
G1 X96.393 Y85.43 E35.11068
G1 X100.222 Y83.213 E35.41972
G1 X104.263 Y81.462 E35.72733
G1 X108.97 Y80.067 E36.07023
G1 X112.915 Y79.38 E36.34992
G1 X117.416 Y79.111 E36.66486
G1 X122.264 Y79.403 E37.00409
G1 X125.943 Y80.05 E37.26499
G1 X130.905 Y81.522 E37.6265
G1 X134.302 Y82.977 E37.88462
G1 X138.647 Y85.458 E38.23409
G1 X142.406 Y88.278 E38.56231
G1 X145.226 Y90.935 E38.83293
G1 X148.396 Y94.711 E39.17729
G1 X150.811 Y98.407 E39.48566
G1 X152.635 Y102.018 E39.76823
G1 X154.297 Y106.552 E40.10552
G1 X155.324 Y110.902 E40.4177
G1 X155.798 Y114.782 E40.69072
G1 X155.814 Y119.912 E41.04903
G1 X155.247 Y124.505 E41.37227
G1 X154.389 Y128.13 E41.63246
G1 X152.661 Y132.926 E41.98852
G1 X150.929 Y136.386 E42.25878
G1 X148.161 Y140.611 E42.61157
G1 X145.633 Y143.633 E42.88676
G1 X142.295 Y146.808 E43.20853
G1 X138.548 Y149.609 E43.53529
G1 X134.778 Y151.787 E43.83939
G1 X130.737 Y153.538 E44.147
G1 X126.03 Y154.933 E44.4899
G1 X122.085 Y155.62 E44.76959
G1 X117.584 Y155.889 E45.08453
G1 X112.736 Y155.597 E45.42376
G1 X109.057 Y154.95 E45.68467
G1 X104.095 Y153.478 E46.04617
G1 X100.696 Y152.022 E46.30444
G1 X96.353 Y149.542 E46.65376
G1 X92.594 Y146.723 E46.98194
G1 X89.872 Y144.169 E47.24265
G1 X86.56 Y140.226 E47.60231
G1 X84.32 Y136.81 E47.88763
G1 X82.162 Y132.502 E48.22417
G1 X80.699 Y128.438 E48.52586
G1 X79.676 Y124.099 E48.83723
G1 X79.202 Y120.219 E49.11025
G1 X79.186 Y115.089 E49.46856
G1 X79.753 Y110.495 E49.79187
G1 X80.611 Y106.87 E50.05206
G1 X82.339 Y102.074 E50.40812
G1 X84.071 Y98.614 E50.67838
G1 X86.839 Y94.389 E51.03117
G1 X89.367 Y91.367 E51.30636
G0 F6000 X89.781 Y91.802
G1 F1200 X93.119 Y88.627 E51.62813
G1 X96.752 Y85.911 E51.94495
G1 X100.461 Y83.764 E52.24429
G1 X104.502 Y82.013 E52.55189
G1 X109.074 Y80.658 E52.88496
G1 X112.951 Y79.979 E53.15988
G1 X117.38 Y79.71 E53.4698
G1 X122.16 Y79.994 E53.80425
G1 X125.839 Y80.641 E54.06516
G1 X130.669 Y82.074 E54.41705
G1 X134.066 Y83.529 E54.67517
G1 X138.287 Y85.938 E55.01462
G1 X141.995 Y88.715 E55.33819
G1 X144.766 Y91.321 E55.60388
G1 X147.936 Y95.097 E55.94824
G1 X150.275 Y98.678 E56.24698
G1 X152.099 Y102.289 E56.52955
G1 X153.733 Y106.758 E56.8619
G1 X154.728 Y110.975 E57.16453
G1 X155.202 Y114.855 E57.43755
G1 X155.214 Y119.913 E57.79083
G1 X154.663 Y124.367 E58.1043
G1 X153.805 Y127.992 E58.36449
G1 X152.124 Y132.657 E58.71083
G1 X150.392 Y136.117 E58.98109
G1 X147.659 Y140.282 E59.32903
G1 X145.219 Y143.198 E59.5946
G1 X141.881 Y146.373 E59.91637
G1 X138.248 Y149.09 E60.23324
G1 X134.539 Y151.236 E60.53254
G1 X130.498 Y152.987 E60.84014
G1 X125.926 Y154.342 E61.17321
G1 X122.049 Y155.021 E61.44812
G1 X117.62 Y155.29 E61.75804
G1 X112.84 Y155.006 E62.0925
G1 X109.161 Y154.359 E62.35341
G1 X104.331 Y152.926 E62.7053
G1 X100.932 Y151.47 E62.96357
G1 X96.713 Y149.062 E63.30287
G1 X93.005 Y146.285 E63.62644
G1 X90.283 Y143.731 E63.88715
G1 X87.062 Y139.897 E64.2369
G1 X84.822 Y136.481 E64.52222
G1 X82.727 Y132.299 E64.84892
G1 X81.264 Y128.235 E65.1506
G1 X80.272 Y124.026 E65.45264
G1 X79.798 Y120.146 E65.72566
G1 X79.786 Y115.088 E66.07894
G1 X80.337 Y110.633 E66.39248
G1 X81.195 Y107.008 E66.65267
G1 X82.876 Y102.343 E66.99901
G1 X84.608 Y98.883 E67.26926
G1 X87.341 Y94.718 E67.61721
G1 X89.781 Y91.802 E67.88278
G0 F6000 X90.195 Y92.237
G1 F1200 X93.533 Y89.062 E68.20455
G1 X97.111 Y86.392 E68.51637
G1 X100.7 Y84.315 E68.806
G1 X104.741 Y82.564 E69.11361
G1 X109.178 Y81.249 E69.43684
G1 X112.988 Y80.578 E69.70705
G1 X117.345 Y80.309 E70.01195
G1 X122.056 Y80.585 E70.34156
G1 X125.735 Y81.232 E70.60247
G1 X130.433 Y82.626 E70.94475
G1 X133.83 Y84.081 E71.20286
G1 X137.928 Y86.419 E71.5324
G1 X141.584 Y89.153 E71.85126
G1 X144.306 Y91.707 E72.11197
G1 X147.476 Y95.483 E72.45633
G1 X149.739 Y98.949 E72.74545
G1 X151.563 Y102.56 E73.02801
G1 X153.149 Y106.896 E73.35049
G1 X154.132 Y111.048 E73.64851
G1 X154.606 Y114.928 E73.92153
G1 X154.618 Y119.84 E74.26461
G1 X154.079 Y124.229 E74.57347
G1 X153.221 Y127.854 E74.83366
G1 X151.587 Y132.388 E75.17028
G1 X149.855 Y135.848 E75.44054
G1 X147.198 Y139.897 E75.7788
G1 X144.805 Y142.763 E76.03958
G1 X141.467 Y145.938 E76.36135
G1 X137.889 Y148.609 E76.67322
G1 X134.3 Y150.685 E76.96281
G1 X130.259 Y152.436 E77.27042
G1 X125.822 Y153.751 E77.59365
G1 X122.012 Y154.422 E77.86386
G1 X117.655 Y154.691 E78.16876
G1 X112.944 Y154.415 E78.49837
G1 X109.265 Y153.768 E78.75928
G1 X104.567 Y152.374 E79.10155
G1 X101.168 Y150.918 E79.35983
G1 X97.072 Y148.581 E79.68921
G1 X93.416 Y145.847 E80.00807
G1 X90.694 Y143.293 E80.26878
G1 X87.564 Y139.568 E80.60861
G1 X85.324 Y136.152 E80.89393
G1 X83.292 Y132.096 E81.21079
G1 X81.829 Y128.032 E81.51248
G1 X80.868 Y123.953 E81.80518
G1 X80.394 Y120.073 E82.0782
G1 X80.382 Y115.161 E82.42128
G1 X80.921 Y110.771 E82.73021
G1 X81.779 Y107.146 E82.9904
G1 X83.413 Y102.612 E83.32702
G1 X85.145 Y99.152 E83.59728
G1 X87.802 Y95.103 E83.93554
G1 X90.195 Y92.237 E84.19632
G0 F6000 X90.656 Y92.622
G1 F1200 X93.946 Y89.497 E84.51326
G1 X97.469 Y86.873 E84.82008
G1 X100.939 Y84.866 E85.10006
G1 X104.98 Y83.115 E85.40767
G1 X109.283 Y81.84 E85.72114
G1 X113.026 Y81.177 E85.98664
G1 X117.31 Y80.908 E86.28645
G1 X121.952 Y81.176 E86.61122
G1 X125.631 Y81.823 E86.87212
G1 X130.197 Y83.178 E87.20479
G1 X133.594 Y84.633 E87.46291
G1 X137.63 Y86.94 E87.78761
G1 X141.173 Y89.591 E88.09668
G1 X143.895 Y92.145 E88.35739
G1 X146.974 Y95.811 E88.69177
G1 X149.203 Y99.22 E88.97626
G1 X151.027 Y102.831 E89.25882
G1 X152.585 Y107.102 E89.57637
G1 X153.536 Y111.121 E89.86483
G1 X154.01 Y115.001 E90.13785
G1 X154.022 Y119.767 E90.47074
G1 X153.495 Y124.091 E90.77499
G1 X152.637 Y127.716 E91.03518
G1 X151.05 Y132.119 E91.36208
G1 X149.318 Y135.579 E91.63233
G1 X146.737 Y139.512 E91.96091
G1 X144.344 Y142.378 E92.22169
G1 X141.054 Y145.503 E92.53862
G1 X137.531 Y148.128 E92.84549
G1 X134.061 Y150.134 E93.12544
G1 X130.02 Y151.885 E93.43305
G1 X125.717 Y153.16 E93.74651
G1 X121.974 Y153.823 E94.01202
G1 X117.69 Y154.092 E94.31183
G1 X113.048 Y153.824 E94.63659
G1 X109.369 Y153.177 E94.8975
G1 X104.803 Y151.822 E95.23017
G1 X101.404 Y150.366 E95.48844
G1 X97.37 Y148.06 E95.81298
G1 X93.827 Y145.409 E96.12205
G1 X91.105 Y142.855 E96.38276
G1 X88.066 Y139.239 E96.71268
G1 X85.826 Y135.823 E96.99799
G1 X83.857 Y131.893 E97.30501
G1 X82.394 Y127.829 E97.6067
G1 X81.464 Y123.88 E97.89007
G1 X80.99 Y120 E98.16309
G1 X80.978 Y115.234 E98.49598
G1 X81.505 Y110.909 E98.8003
G1 X82.363 Y107.284 E99.06049
G1 X83.95 Y102.881 E99.38739
G1 X85.682 Y99.421 E99.65764
G1 X88.263 Y95.488 E99.98622
G1 X90.656 Y92.622 E100.247
G0 F6000 X91.117 Y93.007
G1 F1200 X94.359 Y89.932 E100.5591
G1 X97.77 Y87.392 E100.85614
G1 X101.178 Y85.417 E101.13126
G1 X105.219 Y83.666 E101.43887
G1 X109.388 Y82.431 E101.74257
G1 X113.064 Y81.776 E102.00336
G1 X117.276 Y81.507 E102.29816
G1 X121.848 Y81.767 E102.61801
G1 X125.527 Y82.414 E102.87892
G1 X129.961 Y83.73 E103.20197
G1 X133.358 Y85.185 E103.46008
G1 X137.271 Y87.421 E103.77487
G1 X140.762 Y90.029 E104.07923
G1 X143.484 Y92.583 E104.33994
G1 X146.472 Y96.14 E104.66441
G1 X148.667 Y99.491 E104.9442
G1 X150.491 Y103.102 E105.22677
G1 X152.021 Y107.307 E105.53931
G1 X152.94 Y111.194 E105.81829
G1 X153.414 Y115.074 E106.09131
G1 X153.426 Y119.695 E106.41407
G1 X152.911 Y123.953 E106.71364
G1 X152.053 Y127.578 E106.97383
G1 X150.513 Y131.85 E107.29101
G1 X148.781 Y135.31 E107.56126
G1 X146.276 Y139.127 E107.88015
G1 X143.883 Y141.993 E108.14093
G1 X140.641 Y145.068 E108.45303
G1 X137.23 Y147.609 E108.75012
G1 X133.822 Y149.583 E109.0252
G1 X129.781 Y151.334 E109.33281
G1 X125.612 Y152.569 E109.63651
G1 X121.936 Y153.224 E109.89731
G1 X117.724 Y153.493 E110.1921
G1 X113.152 Y153.233 E110.51195
G1 X109.473 Y152.586 E110.77286
G1 X105.039 Y151.27 E111.09591
G1 X101.64 Y149.814 E111.35418
G1 X97.729 Y147.579 E111.66881
G1 X94.238 Y144.971 E111.97317
G1 X91.516 Y142.417 E112.23388
G1 X88.568 Y138.91 E112.55388
G1 X86.328 Y135.494 E112.83919
G1 X84.422 Y131.69 E113.13638
G1 X82.959 Y127.626 E113.43806
G1 X82.06 Y123.807 E113.7121
G1 X81.586 Y119.927 E113.98512
G1 X81.574 Y115.306 E114.30788
G1 X82.089 Y111.047 E114.60752
G1 X82.947 Y107.422 E114.86771
G1 X84.487 Y103.15 E115.18489
G1 X86.219 Y99.69 E115.45514
G1 X88.724 Y95.873 E115.77403
G1 X91.117 Y93.007 E116.03481
G0 F6000 X91.578 Y93.392
G1 F1200 X94.772 Y90.368 E116.34203
G1 X98.071 Y87.911 E116.62934
G1 X101.417 Y85.968 E116.89959
G1 X105.458 Y84.217 E117.20719
G1 X109.494 Y83.022 E117.50119
G1 X113.103 Y82.375 E117.75728
G1 X117.242 Y82.106 E118.04699
G1 X121.744 Y82.358 E118.36193
G1 X125.423 Y83.005 E118.62284
G1 X129.725 Y84.282 E118.93627
G1 X133.122 Y85.737 E119.19439
G1 X136.912 Y87.902 E119.49925
G1 X140.351 Y90.467 E119.79891
G1 X143.073 Y93.021 E120.05962
G1 X145.97 Y96.469 E120.37417
G1 X148.131 Y99.762 E120.64927
G1 X149.955 Y103.373 E120.93184
G1 X151.437 Y107.446 E121.23457
G1 X152.344 Y111.267 E121.50887
G1 X152.818 Y115.147 E121.78189
G1 X152.83 Y119.624 E122.09459
G1 X152.327 Y123.815 E122.38942
G1 X151.469 Y127.44 E122.64961
G1 X149.976 Y131.581 E122.95706
G1 X148.244 Y135.041 E123.22732
G1 X145.815 Y138.742 E123.53652
G1 X143.422 Y141.608 E123.79731
G1 X140.228 Y144.632 E124.10452
G1 X136.929 Y147.09 E124.39187
G1 X133.583 Y149.032 E124.66209
G1 X129.542 Y150.783 E124.96969
G1 X125.506 Y151.978 E125.26369
G1 X121.897 Y152.625 E125.51978
G1 X117.758 Y152.894 E125.80949
G1 X113.256 Y152.642 E126.12443
G1 X109.577 Y151.995 E126.38533
G1 X105.275 Y150.718 E126.69877
G1 X101.876 Y149.262 E126.95704
G1 X98.088 Y147.098 E127.26175
G1 X94.649 Y144.533 E127.56141
G1 X91.927 Y141.979 E127.82211
G1 X89.07 Y138.581 E128.13219
G1 X86.83 Y135.165 E128.41751
G1 X84.986 Y131.486 E128.70495
G1 X83.543 Y127.488 E129.00182
G1 X82.656 Y123.734 E129.27125
G1 X82.182 Y119.854 E129.54427
G1 X82.17 Y115.377 E129.85697
G1 X82.673 Y111.185 E130.15186
G1 X83.531 Y107.56 E130.41205
G1 X85.024 Y103.419 E130.71951
G1 X86.756 Y99.959 E130.98977
G1 X89.185 Y96.258 E131.29897
G1 X91.578 Y93.392 E131.55975
G0 F6000 X92.039 Y93.777
G1 F1200 X95.184 Y90.804 E131.86203
G1 X98.373 Y88.43 E132.13972
G1 X101.656 Y86.519 E132.40504
G1 X105.697 Y84.768 E132.71265
G1 X109.6 Y83.613 E132.99694
G1 X113.209 Y82.966 E133.25304
G1 X117.28 Y82.705 E133.53796
G1 X121.64 Y82.949 E133.84297
G1 X125.319 Y83.596 E134.10388
G1 X129.489 Y84.834 E134.4077
G1 X132.886 Y86.289 E134.66582
G1 X136.554 Y88.383 E134.96082
G1 X139.94 Y90.905 E135.25572
G1 X142.662 Y93.459 E135.51642
G1 X145.469 Y96.799 E135.82116
G1 X147.595 Y100.033 E136.09148
G1 X149.419 Y103.644 E136.37404
G1 X150.873 Y107.651 E136.67177
G1 X151.748 Y111.34 E136.93658
G1 X152.222 Y115.22 E137.2096
G1 X152.234 Y119.553 E137.51225
G1 X151.743 Y123.677 E137.80233
G1 X150.885 Y127.302 E138.06252
G1 X149.439 Y131.312 E138.36025
G1 X147.707 Y134.772 E138.63051
G1 X145.354 Y138.357 E138.93002
G1 X142.961 Y141.223 E139.19081
G1 X139.816 Y144.196 E139.49309
G1 X136.627 Y146.571 E139.77081
G1 X133.344 Y148.481 E140.0361
G1 X129.303 Y150.232 E140.34371
G1 X125.4 Y151.387 E140.628
G1 X121.791 Y152.034 E140.8841
G1 X117.72 Y152.295 E141.16903
G1 X113.36 Y152.051 E141.47403
G1 X109.681 Y151.404 E141.73494
G1 X105.511 Y150.166 E142.03876
G1 X102.112 Y148.71 E142.29704
G1 X98.446 Y146.617 E142.59189
G1 X95.06 Y144.095 E142.88678
G1 X92.338 Y141.541 E143.14749
G1 X89.572 Y138.252 E143.44765
G1 X87.332 Y134.836 E143.73297
G1 X85.55 Y131.282 E144.01066
